img/logos/wicket.svg

<?xml version="1.0" encoding="UTF-8" standalone="no"?>
<svg width="256px" height="256px" viewBox="0 0 256 256" version="1.1" xmlns="http://www.w3.org/2000/svg" xmlns:xlink="http://www.w3.org/1999/xlink" preserveAspectRatio="xMinYMin meet">
    <defs>
        <linearGradient x1="0%" y1="0%" x2="0%" y2="100%" id="linearGradient-1">
            <stop offset="0%" style="stop-color:rgb(255,80,0);stop-opacity:1" />
	      <stop offset="100%" style="stop-color:rgb(225,50,0);stop-opacity:1" />
        </linearGradient>
        <linearGradient x1="0%" y1="0%" x2="10%" y2="0%" id="linearGradient-2">
            <stop stop-color="#808080" offset="0%"></stop>
            <stop stop-color="#808080" stop-opacity="0" offset="100%"></stop>
        </linearGradient>
        <linearGradient x1="0%" y1="0%" x2="80%" y2="80%" id="linearGradient-3">
            <stop stop-color="#FFFFFF" stop-opacity="0" offset="0%"></stop>
            <stop stop-color="#000000" offset="30%"></stop>
            <stop stop-color="#FFFFFF" stop-opacity="0" offset="100%"></stop>
        </linearGradient>
        <linearGradient x1="0%" y1="0%" x2="90%" y2="100%" id="linearGradient-4">
        	<stop offset="0%" style="stop-color:#FFFFFF;stop-opacity:0" />
	      	<stop offset="40%" style="stop-color:#000000;stop-opacity:1" />
	      	<stop offset="65%" style="stop-color:#FFFFFF;stop-opacity:0" />
        </linearGradient>
    </defs>
	<g>
		<circle fill="url(#linearGradient-1)" cx="128" cy="128" r="124.8"></circle>
		<path d="M128,256 C198.692448,256 256,198.692448 256,128 C256,57.307552 198.692448,0 128,0 C57.307552,0 0,57.307552 0,128 C0,198.692448 57.307552,256 128,256 L128,256 L128,256 Z M128,249.6 C60.8421744,249.6 6.4,195.157826 6.4,128 C6.4,60.8421744 60.8421744,6.4 128,6.4 C195.157826,6.4 249.6,60.8421744 249.6,128 C249.6,195.157826 195.157826,249.6 128,249.6 L128,249.6 L128,249.6 Z" fill="#FFFFFF"></path>
		<path d="M80,176 L112,176 L112,144 L80,80 L80,176 L80,176 Z" fill="#FFFFFF"></path>
		<path d="M112,176 L144,176 L144,144 L128,112 L112,144 L112,176 L112,176 Z" fill="#FFFFFF"></path>
		<path d="M144,176 L176,176 L176,80 L144,144 L144,176 L144,176 Z" fill="#FFFFFF"></path>
		<path d="M80,176 L112,176 L112,144 L80,80 L80,176 L80,176 Z" fill="url(#linearGradient-2)"></path>
		<path d="M128,112 L131.2,118.4 L118.4,144 L115.2,137.6 L128,112 L128,112 Z" fill="url(#linearGradient-3)"></path>
		<path d="M147.2,137.6 L150.4,144 L176,92 L176,80 L147.2,137.6 Z" fill="url(#linearGradient-4)"></path>
	</g>
</svg>

<svg width="256" height="256" viewBox="0 0 256 256" xmlns="http://www.w3.org/2000/svg" preserveAspectRatio="xMinYMin meet"><defs><linearGradient x1="0%" y1="0%" x2="0%" y2="100%" id="a"><stop offset="0%" stop-color="#FF5000"/><stop offset="100%" stop-color="#E13200"/></linearGradient><linearGradient x1="0%" y1="0%" x2="10%" y2="0%" id="b"><stop stop-color="gray" offset="0%"/><stop stop-color="gray" stop-opacity="0" offset="100%"/></linearGradient><linearGradient x1="0%" y1="0%" x2="80%" y2="80%" id="c"><stop stop-color="#FFF" stop-opacity="0" offset="0%"/><stop offset="30%"/><stop stop-color="#FFF" stop-opacity="0" offset="100%"/></linearGradient><linearGradient x1="0%" y1="0%" x2="90%" y2="100%" id="d"><stop offset="0%" stop-color="#FFF" stop-opacity="0"/><stop offset="40%"/><stop offset="65%" stop-color="#FFF" stop-opacity="0"/></linearGradient></defs><circle fill="url(#a)" cx="128" cy="128" r="124.8"/><path d="M128 256c70.692 0 128-57.308 128-128C256 57.308 198.692 0 128 0 57.308 0 0 57.308 0 128c0 70.692 57.308 128 128 128zm0-6.4C60.842 249.6 6.4 195.158 6.4 128 6.4 60.842 60.842 6.4 128 6.4c67.158 0 121.6 54.442 121.6 121.6 0 67.158-54.442 121.6-121.6 121.6z" fill="#FFF"/><path d="M80 176h32v-32L80 80v96zM112 176h32v-32l-16-32-16 32v32zM144 176h32V80l-32 64v32z" fill="#FFF"/><path d="M80 176h32v-32L80 80v96z" fill="url(#b)"/><path d="M128 112l3.2 6.4-12.8 25.6-3.2-6.4L128 112z" fill="url(#c)"/><path d="M147.2 137.6l3.2 6.4L176 92V80l-28.8 57.6z" fill="url(#d)"/></svg>
